X: 43012
T: Willy Atkinson's Schottische
R: barndance
M: 4/4
K: Gmajor
|:D>G|B2 B2 B<dd>B|c>Bc<d e2 f>e|d2 (3gfe d>cB>A|G>A (3BAG D2 D>G|
B2 B2 B<dd>B|c>Bc<d e2 f>e|d>gf>e (3ded (3cBA|G2 g2 G2:|
|:d>B|c<AF>A D2 e>^c|d<BG>B D2 g2|(3fgf A>B c2 e2|e<d^c>d B2 d>B|
c<A (3FGA D2 e>^c|d<B (3GBd g2 a>g|(3fgf A>B c<de>f|g2 d2 G2:|
|:(3FGA|B2 B2 B2 A>G|F>^EF>G A2- A>B|c2 c2 (3cdc (3cBA|G>DG>A B>D (3FGA|
B2 B>^A (3BcB =A>G|F>^EF>G A>^GA>B|c2 c2 c2 (3DEF|G>gd>B G2:|

